48x48/apps/connectagram.svg

<svg xmlns="http://www.w3.org/2000/svg" width="48" height="48" version="1">
 <rect style="opacity:0.2" width="40" height="40" x="4" y="5" rx="12" ry="12"/>
 <rect style="fill:#2f9a2f" width="40" height="40" x="4" y="4" rx="12" ry="12"/>
 <path style="fill:#f4f4f7;opacity:0.2" d="M 16 4 C 9.352 4 4 9.352 4 16 L 4 17 C 4 10.352 9.352 5 16 5 L 32 5 C 38.648 5 44 10.352 44 17 L 44 16 C 44 9.352 38.648 4 32 4 L 16 4 z"/>
 <path style="opacity:0.2" d="m 31,32.710135 c -0.83466,0.426082 -1.704739,0.74758 -2.610236,0.964494 C 27.484239,33.891542 26.539359,33.999999 25.555119,34 22.618102,33.999999 20.291333,33.194319 18.574803,31.582957 16.858266,29.963851 15.999999,27.771471 16,25.005811 c -10e-7,-2.773391 0.858266,-4.965771 2.574803,-6.577147 1.71653,-1.619092 4.043299,-2.428645 6.980316,-2.428664 0.98424,1.9e-5 1.92912,0.108475 2.834645,0.325371 0.905497,0.216932 1.775576,0.53843 2.610236,0.964494 v 3.390373 c -0.842535,-0.565513 -1.673241,-0.979974 -2.492126,-1.243384 -0.81891,-0.263381 -1.381074,-0.395079 -2.286575,-0.395093 -1.622056,1.4e-5 -2.897645,0.511312 -3.826771,1.533893 -0.929142,1.022606 -1.393833,2.632878 -1.393826,4.430157 -7e-6,1.789548 0.464684,3.395946 1.393826,4.418535 0.929126,1.022599 2.204715,1.533896 3.826771,1.533893 0.905501,3e-6 1.467665,-0.131695 2.286575,-0.395093 C 29.326759,30.299753 30.157465,29.885293 31,29.319762 v 3.390373"/>
 <path style="fill:#f4f4f7" d="m 31,31.710135 c -0.83466,0.426082 -1.704739,0.74758 -2.610236,0.964494 C 27.484239,32.891542 26.539359,32.999999 25.555119,33 22.618102,32.999999 20.291333,32.194319 18.574803,30.582957 16.858266,28.963851 15.999999,26.771471 16,24.005811 c -10e-7,-2.773391 0.858266,-4.965771 2.574803,-6.577147 1.71653,-1.619092 4.043299,-2.428645 6.980316,-2.428664 0.98424,1.9e-5 1.92912,0.108475 2.834645,0.325371 0.905497,0.216932 1.775576,0.53843 2.610236,0.964494 v 3.390373 c -0.842535,-0.565513 -1.673241,-0.979974 -2.492126,-1.243384 -0.81891,-0.263381 -1.381074,-0.395079 -2.286575,-0.395093 -1.622056,1.4e-5 -2.897645,0.511312 -3.826771,1.533893 -0.929142,1.022606 -1.393833,2.632878 -1.393826,4.430157 -7e-6,1.789548 0.464684,3.395946 1.393826,4.418535 0.929126,1.022599 2.204715,1.533896 3.826771,1.533893 0.905501,3e-6 1.467665,-0.131695 2.286575,-0.395093 C 29.326759,29.299753 30.157465,28.885293 31,28.319762 v 3.390373"/>
</svg>

<svg xmlns="http://www.w3.org/2000/svg" width="48" height="48" version="1"><rect style="opacity:.2" width="40" height="40" x="4" y="5" rx="12" ry="12"/><rect style="fill:#2f9a2f" width="40" height="40" x="4" y="4" rx="12" ry="12"/><path style="fill:#f4f4f7;opacity:.2" d="M16 4C9.352 4 4 9.352 4 16v1C4 10.352 9.352 5 16 5h16c6.648 0 12 5.352 12 12v-1c0-6.648-5.352-12-12-12H16z"/><path style="opacity:.2" d="M31 32.71c-.835.426-1.705.748-2.61.965-.906.217-1.85.325-2.835.325-2.937 0-5.264-.806-6.98-2.417C16.858 29.963 16 27.771 16 25.006c0-2.774.858-4.966 2.575-6.577C20.29 16.809 22.618 16 25.555 16c.984 0 1.93.108 2.835.325.905.217 1.775.539 2.61.965v3.39c-.843-.565-1.673-.98-2.492-1.243-.819-.264-1.381-.395-2.287-.395-1.622 0-2.897.511-3.826 1.534-.93 1.022-1.394 2.633-1.394 4.43 0 1.79.464 3.396 1.394 4.418.929 1.023 2.204 1.534 3.826 1.534.906 0 1.468-.131 2.287-.395.819-.263 1.65-.678 2.492-1.243v3.39"/><path style="fill:#f4f4f7" d="M31 31.71c-.835.426-1.705.748-2.61.965-.906.217-1.85.325-2.835.325-2.937 0-5.264-.806-6.98-2.417C16.858 28.963 16 26.771 16 24.006c0-2.774.858-4.966 2.575-6.577C20.29 15.809 22.618 15 25.555 15c.984 0 1.93.108 2.835.325.905.217 1.775.539 2.61.965v3.39c-.843-.565-1.673-.98-2.492-1.243-.819-.264-1.381-.395-2.287-.395-1.622 0-2.897.511-3.826 1.534-.93 1.022-1.394 2.633-1.394 4.43 0 1.79.464 3.396 1.394 4.418.929 1.023 2.204 1.534 3.826 1.534.906 0 1.468-.131 2.287-.395.819-.263 1.65-.678 2.492-1.243v3.39"/></svg>
